flaticon/security/fingerprint.svg

<svg xmlns="http://www.w3.org/2000/svg" width="32" height="32" viewBox="0 0 24 24">
    <path d="M 20.800781 3.195312 C 14.960938 3.195312 12.34375 0.179688 12.308594 0.136719 C 12.15625 -0.046875 11.84375 -0.046875 11.691406 0.136719 C 11.667969 0.167969 9.078125 3.195312 3.199219 3.195312 C 2.976562 3.195312 2.796875 3.371094 2.796875 3.59375 L 2.796875 11.230469 C 2.796875 15.40625 4.671875 19.371094 7.816406 21.839844 C 9.085938 22.835938 10.453125 23.558594 11.886719 23.984375 C 11.921875 23.996094 11.960938 24 12 24 C 12.039062 24 12.078125 23.996094 12.113281 23.984375 C 13.546875 23.558594 14.914062 22.839844 16.183594 21.839844 C 19.328125 19.371094 21.203125 15.402344 21.203125 11.230469 L 21.203125 3.59375 C 21.203125 3.371094 21.023438 3.195312 20.800781 3.195312 Z M 20.402344 11.230469 C 20.402344 15.160156 18.640625 18.894531 15.6875 21.210938 C 14.535156 22.121094 13.292969 22.78125 12 23.183594 C 10.707031 22.78125 9.464844 22.121094 8.3125 21.210938 C 5.359375 18.894531 3.597656 15.160156 3.597656 11.230469 L 3.597656 3.988281 C 8.496094 3.882812 11.144531 1.789062 12 0.96875 C 12.855469 1.789062 15.503906 3.878906 20.402344 3.988281 Z M 20.402344 11.230469"/>
    <path d="M12.140625 11.007812C11.9375 11.09375 11.839844 11.328125 11.921875 11.53125 11.929688 11.546875 12.535156 13.105469 12.367188 17.984375 12.359375 18.207031 12.53125 18.390625 12.75 18.398438 12.757812 18.398438 12.761719 18.398438 12.765625 18.398438 12.980469 18.398438 13.15625 18.230469 13.164062 18.011719 13.34375 12.898438 12.6875 11.289062 12.660156 11.222656 12.574219 11.019531 12.34375 10.925781 12.140625 11.007812zM8.863281 5.871094C8.769531 5.933594 8.675781 5.996094 8.582031 6.058594 8.394531 6.179688 8.34375 6.429688 8.464844 6.613281 8.585938 6.796875 8.832031 6.851562 9.015625 6.730469 9.117188 6.664062 9.21875 6.597656 9.316406 6.527344 9.570312 6.351562 9.8125 6.183594 10.082031 6.074219 10.785156 5.78125 11.527344 5.628906 12.292969 5.628906 14.605469 5.628906 16.683594 7.007812 17.585938 9.140625 18.058594 10.257812 18.320312 11.179688 18.402344 12.035156 18.425781 12.242188 18.597656 12.398438 18.800781 12.398438 18.8125 12.398438 18.828125 12.394531 18.839844 12.394531 19.0625 12.375 19.222656 12.175781 19.199219 11.957031 19.109375 11.019531 18.828125 10.023438 18.324219 8.828125 17.296875 6.398438 14.929688 4.832031 12.292969 4.832031 11.421875 4.832031 10.574219 5 9.773438 5.335938 9.425781 5.480469 9.140625 5.675781 8.863281 5.871094zM6.402344 11.347656C6.445312 9.65625 6.917969 8.429688 7.878906 7.480469 8.039062 7.324219 8.039062 7.070312 7.882812 6.914062 7.730469 6.757812 7.476562 6.753906 7.316406 6.910156 6.199219 8.015625 5.652344 9.417969 5.601562 11.324219 5.570312 12.449219 5.703125 13.460938 6.015625 14.511719 6.066406 14.683594 6.226562 14.796875 6.398438 14.796875 6.4375 14.796875 6.472656 14.792969 6.511719 14.78125 6.722656 14.71875 6.84375 14.496094 6.78125 14.28125 6.496094 13.316406 6.375 12.386719 6.402344 11.347656zM6.402344 11.347656"/>
    <path d="M 17.554688 11.273438 C 17.476562 10.789062 17.367188 10.347656 17.222656 9.921875 C 16.558594 7.96875 14.433594 6.320312 12.480469 6.253906 C 11.730469 6.226562 11.003906 6.359375 10.316406 6.644531 C 8.417969 7.4375 7.179688 9.277344 7.164062 11.332031 C 7.15625 11.816406 7.222656 12.300781 7.355469 12.769531 C 7.425781 13.019531 7.492188 13.261719 7.527344 13.503906 C 7.613281 14.082031 7.632812 15.09375 7.597656 16.789062 C 7.59375 17.011719 7.769531 17.195312 7.992188 17.199219 C 7.992188 17.199219 7.996094 17.199219 8 17.199219 C 8.214844 17.199219 8.394531 17.023438 8.398438 16.808594 C 8.433594 15.066406 8.410156 14.011719 8.320312 13.390625 C 8.277344 13.097656 8.199219 12.816406 8.125 12.554688 C 8.011719 12.15625 7.957031 11.75 7.960938 11.339844 C 7.976562 9.605469 9.023438 8.050781 10.625 7.382812 C 11.207031 7.140625 11.816406 7.027344 12.453125 7.050781 C 14.070312 7.109375 15.910156 8.542969 16.464844 10.179688 C 16.597656 10.5625 16.695312 10.960938 16.765625 11.398438 C 16.765625 11.398438 16.765625 11.402344 16.765625 11.402344 C 16.90625 12.277344 16.871094 13.300781 16.828125 14.714844 L 16.800781 15.585938 C 16.796875 15.808594 16.96875 15.992188 17.191406 16 C 17.195312 16 17.199219 16 17.203125 16 C 17.417969 16 17.597656 15.828125 17.601562 15.609375 L 17.628906 14.742188 C 17.675781 13.28125 17.707031 12.226562 17.554688 11.273438 Z M 17.554688 11.273438"/>
    <path d="M9.5625 12.390625C9.46875 12.046875 9.429688 11.699219 9.4375 11.347656 9.464844 10.46875 9.847656 9.273438 10.628906 8.722656 10.808594 8.597656 10.855469 8.347656 10.726562 8.164062 10.601562 7.984375 10.351562 7.941406 10.167969 8.066406 9.15625 8.78125 8.667969 10.214844 8.636719 11.324219 8.636719 11.324219 8.636719 11.324219 8.636719 11.328125 8.625 11.753906 8.675781 12.183594 8.789062 12.597656 8.792969 12.617188 8.804688 12.644531 8.816406 12.683594 9.230469 13.988281 9.253906 16.070312 9.199219 17.585938 9.191406 17.804688 9.363281 17.992188 9.585938 18 9.589844 18 9.59375 18 9.597656 18 9.8125 18 9.992188 17.828125 10 17.613281 10.078125 15.316406 9.9375 13.578125 9.578125 12.441406zM16.109375 11.257812C16.019531 10.785156 15.886719 10.351562 15.710938 9.933594 15.101562 8.492188 13.832031 7.59375 12.398438 7.59375 12.132812 7.59375 11.863281 7.625 11.605469 7.683594 11.386719 7.730469 11.253906 7.941406 11.300781 8.160156 11.347656 8.375 11.558594 8.507812 11.777344 8.464844 11.980469 8.417969 12.191406 8.394531 12.402344 8.394531 13.503906 8.394531 14.492188 9.105469 14.972656 10.242188 15.128906 10.609375 15.242188 10.992188 15.324219 11.410156 15.324219 11.410156 15.324219 11.410156 15.324219 11.414062 15.507812 12.363281 15.703125 13.832031 15.601562 16.785156 15.59375 17.003906 15.765625 17.191406 15.988281 17.199219 15.992188 17.199219 15.996094 17.199219 16 17.199219 16.214844 17.199219 16.394531 17.027344 16.402344 16.8125 16.484375 14.445312 16.394531 12.734375 16.109375 11.261719 16.109375 11.261719 16.109375 11.261719 16.109375 11.257812zM14.800781 16.488281L14.800781 16.398438C14.800781 16.179688 14.625 16 14.402344 15.996094 14.179688 15.996094 14 16.175781 14 16.394531L14 16.488281C14 16.621094 14.003906 16.742188 14.003906 16.855469 14.007812 16.964844 14.007812 17.074219 14.007812 17.199219 14.007812 17.417969 14.1875 17.59375 14.410156 17.59375 14.628906 17.59375 14.808594 17.414062 14.808594 17.191406 14.808594 17.066406 14.808594 16.957031 14.804688 16.84375 14.804688 16.730469 14.800781 16.617188 14.800781 16.488281zM14.800781 16.488281"/>
    <path d="M 14.40625 11.234375 C 14.3125 10.875 14.226562 10.671875 14.183594 10.578125 C 13.863281 9.816406 13.121094 9.324219 12.292969 9.324219 C 12.019531 9.324219 11.753906 9.375 11.5 9.480469 C 10.757812 9.792969 10.261719 10.515625 10.238281 11.324219 C 10.230469 11.597656 10.277344 11.863281 10.371094 12.105469 C 10.464844 12.398438 10.9375 14.042969 10.800781 17.984375 C 10.792969 18.203125 10.964844 18.390625 11.1875 18.398438 C 11.191406 18.398438 11.195312 18.398438 11.199219 18.398438 C 11.414062 18.398438 11.59375 18.226562 11.601562 18.011719 C 11.738281 14.035156 11.277344 12.292969 11.121094 11.828125 C 11.0625 11.675781 11.035156 11.511719 11.039062 11.347656 C 11.050781 10.851562 11.355469 10.410156 11.808594 10.21875 C 11.964844 10.15625 12.125 10.121094 12.292969 10.121094 C 12.796875 10.121094 13.25 10.421875 13.449219 10.886719 C 13.484375 10.96875 13.554688 11.132812 13.632812 11.4375 C 13.792969 12.039062 13.996094 13.171875 14.042969 15.167969 C 14.046875 15.386719 14.226562 15.5625 14.441406 15.5625 C 14.445312 15.5625 14.449219 15.5625 14.449219 15.5625 C 14.671875 15.554688 14.847656 15.371094 14.839844 15.152344 C 14.804688 13.507812 14.652344 12.15625 14.40625 11.234375 Z M 14.40625 11.234375"/>
</svg>

<svg xmlns="http://www.w3.org/2000/svg" width="32" height="32" viewBox="0 0 24 24">
    <path d="M20.8 3.195c-5.84 0-8.456-3.015-8.491-3.058a.415.415 0 0 0-.618 0C11.668.168 9.078 3.195 3.2 3.195a.398.398 0 0 0-.402.399v7.636c0 4.176 1.875 8.141 5.02 10.61 1.269.996 2.636 1.719 4.07 2.144A.361.361 0 0 0 12 24c.04 0 .078-.004.113-.016 1.434-.425 2.801-1.144 4.07-2.144 3.145-2.469 5.02-6.438 5.02-10.61V3.594a.398.398 0 0 0-.402-.399zm-.398 8.035c0 3.93-1.761 7.665-4.715 9.98-1.152.911-2.394 1.571-3.687 1.974-1.293-.403-2.535-1.063-3.688-1.973-2.953-2.316-4.714-6.05-4.714-9.98V3.987C8.496 3.883 11.145 1.79 12 .968c.855.821 3.504 2.91 8.402 3.02zm0 0"/>
    <path d="M12.14 11.008a.406.406 0 0 0-.218.523c.008.016.613 1.574.445 6.453a.398.398 0 0 0 .383.414h.016c.214 0 .39-.168.398-.386.18-5.114-.476-6.723-.504-6.79a.4.4 0 0 0-.52-.214zm0 0M8.863 5.871l-.281.188a.4.4 0 0 0 .434.671c.101-.066.203-.132.3-.203.254-.175.496-.343.766-.453a5.74 5.74 0 0 1 7.504 3.066c.473 1.118.734 2.04.816 2.895a.405.405 0 0 0 .399.363l.039-.003a.397.397 0 0 0 .36-.438c-.09-.937-.372-1.934-.876-3.129a6.533 6.533 0 0 0-6.031-3.996c-.871 0-1.719.168-2.52.504-.347.144-.632.34-.91.535zm0 0M6.402 11.348c.043-1.692.516-2.918 1.477-3.868a.4.4 0 0 0-.563-.57C6.2 8.016 5.652 9.418 5.602 11.324a9.892 9.892 0 0 0 .414 3.188.4.4 0 0 0 .496.27.402.402 0 0 0 .27-.5 9.19 9.19 0 0 1-.38-2.934zm0 0"/>
    <path d="M17.555 11.273a8.239 8.239 0 0 0-.332-1.351c-.664-1.953-2.79-3.602-4.743-3.668a5.118 5.118 0 0 0-5.316 5.078c-.008.484.059.969.191 1.438.07.25.137.492.172.734.086.578.106 1.59.07 3.285a.402.402 0 0 0 .395.41H8a.401.401 0 0 0 .398-.39c.036-1.743.012-2.797-.078-3.418a6.548 6.548 0 0 0-.195-.836 4.327 4.327 0 0 1 2.5-5.172 4.295 4.295 0 0 1 1.828-.332c1.617.058 3.457 1.492 4.012 3.129.133.383.23.78.3 1.218v.004c.141.875.106 1.899.063 3.313l-.027.87a.404.404 0 0 0 .39.415h.012a.398.398 0 0 0 .399-.39l.027-.868c.047-1.46.078-2.515-.074-3.469zm0 0"/>
    <path d="M9.563 12.39a3.633 3.633 0 0 1-.126-1.042c.028-.88.41-2.075 1.192-2.625a.4.4 0 1 0-.461-.657c-1.012.715-1.5 2.149-1.531 3.258v.004c-.012.426.039.856.152 1.27.004.02.016.047.027.086.414 1.304.438 3.386.383 4.902a.401.401 0 0 0 .387.414h.012a.404.404 0 0 0 .402-.387c.078-2.297-.063-4.035-.422-5.172zm0 0M16.11 11.258a6.518 6.518 0 0 0-.4-1.324c-.608-1.442-1.878-2.34-3.312-2.34-.265 0-.535.031-.793.09a.396.396 0 0 0-.304.476.402.402 0 0 0 .476.305c.203-.047.414-.07.625-.07 1.102 0 2.09.71 2.57 1.847.157.367.27.75.352 1.168v.004c.184.95.38 2.418.278 5.371a.401.401 0 0 0 .386.414H16a.404.404 0 0 0 .402-.387c.082-2.367-.007-4.078-.293-5.55v-.004zm0 0M14.8 16.488v-.09a.401.401 0 0 0-.8-.004v.094c0 .133.004.254.004.367.004.11.004.22.004.344a.401.401 0 0 0 .8-.008c0-.125 0-.234-.003-.347 0-.114-.004-.227-.004-.356zm0 0"/>
    <path d="M14.406 11.234a3.944 3.944 0 0 0-.222-.656 2.046 2.046 0 0 0-1.891-1.254c-.273 0-.54.051-.793.156a2.069 2.069 0 0 0-1.262 1.844c-.008.274.04.54.133.781.094.293.566 1.938.43 5.88a.401.401 0 0 0 .386.413h.012a.404.404 0 0 0 .403-.386c.136-3.977-.325-5.719-.48-6.184a1.257 1.257 0 0 1 1.171-1.707c.504 0 .957.3 1.156.766.035.082.106.246.184.55.16.602.363 1.735.41 3.731a.402.402 0 0 0 .398.395h.008a.4.4 0 0 0 .39-.41c-.034-1.645-.187-2.997-.433-3.919zm0 0"/>
</svg>
